lib/icons/insight.svg

<svg width="14" height="16" viewBox="0 0 14 16" fill="none" xmlns="http://www.w3.org/2000/svg">
<path fill-rule="evenodd" clip-rule="evenodd" d="M1 1H13V11.8788H1V1ZM1 12.8788H13V15H1V12.8788ZM0 1C0 0.447715 0.447715 0 1 0H13C13.5523 0 14 0.447715 14 1V15C14 15.5523 13.5523 16 13 16H1C0.447716 16 0 15.5523 0 15V1ZM3.70044 4.04218C3.4243 4.04218 3.20044 4.26603 3.20044 4.54218C3.20044 4.81832 3.4243 5.04218 3.70044 5.04218H10.5833C10.8595 5.04218 11.0833 4.81832 11.0833 4.54218C11.0833 4.26603 10.8595 4.04218 10.5833 4.04218H3.70044ZM3.70044 8.17847C3.4243 8.17847 3.20044 8.40232 3.20044 8.67847C3.20044 8.95461 3.4243 9.17847 3.70044 9.17847H8.0933C8.36944 9.17847 8.5933 8.95461 8.5933 8.67847C8.5933 8.40232 8.36944 8.17847 8.0933 8.17847H3.70044Z" fill="#FFAD4D"/>
</svg>

<svg width="14" height="16" fill="none" xmlns="http://www.w3.org/2000/svg"><path fill-rule="evenodd" clip-rule="evenodd" d="M1 1h12v10.879H1V1Zm0 11.879h12V15H1v-2.121ZM0 1a1 1 0 0 1 1-1h12a1 1 0 0 1 1 1v14a1 1 0 0 1-1 1H1a1 1 0 0 1-1-1V1Zm3.7 3.042a.5.5 0 1 0 0 1h6.883a.5.5 0 1 0 0-1H3.7Zm0 4.136a.5.5 0 1 0 0 1h4.393a.5.5 0 0 0 0-1H3.7Z" fill="#FFAD4D"/></svg>
